img/svg/cloud-bg2.svg

<?xml version="1.0" encoding="utf-8"?>
<!DOCTYPE svg PUBLIC "-//W3C//DTD SVG 1.1//EN" "http://www.w3.org/Graphics/SVG/1.1/DTD/svg11.dtd">
<svg version="1.1" baseProfile="full"
 xmlns="http://www.w3.org/2000/svg"
 xmlns:xlink="http://www.w3.org/1999/xlink"
 xmlns:ev="http://www.w3.org/2001/xml-events" 
  height="83px" 
  width="135px" 
>
<path fill="rgb( 255, 255, 255 )"
 d="M1.00299999999993,29.496 C0.88699999999994,26.228 1.73700000000008,23.093 2.57799999999997,19.924 C3.19499999999994,17.599 4.29600000000005,15.426 4.98299999999995,13.229 C6.27600000000007,11.904 10.2049999999999,7.48899999999998 13.3299999999999,6.31599999999997 C15.5940000000001,5.54199999999997 22.018,3.18299999999999 25.5119999999999,2.64499999999998 C28.913,2.12099999999998 32.239,1.41399999999999 35.7339999999999,1.50400000000002 C37.55,1.55000000000001 43.8510000000001,1.44200000000001 45.204,1.08499999999998 C46.4480000000001,0.75700000000001 51.6859999999999,1.53800000000001 53.155,1.23099999999999 C54.3710000000001,0.97699999999998 65.9069999999999,1.54300000000001 70.3030000000001,1.56900000000002 C71.211,1.57400000000001 80.1210000000001,2.23200000000003 83.692,2.28399999999999 C84.902,2.30099999999999 93.268,2.99200000000002 96.2719999999999,3.03399999999999 C97.4739999999999,3.05099999999999 103.181,3.56299999999999 104.725,3.95400000000001 C106.5,4.404 112.61,5.93599999999998 114.101,6.14800000000002 C116.104,6.43200000000002 122.299,9.95699999999999 123.814,10.535 C125.394,11.137 128.01,14.206 128.412,14.561 C130.958,16.81 133.882,23.625 133.942,24.232 C134.245,27.308 133.198,40.646 133.185,41.272 C133.15,43.028 132.993,48.042 132.77,48.756 C132.023,51.153 131.72,53.649 130.469,55.935 C130.232,59.217 127.355,61.262 125.028,63.468 C123.283,65.123 117.316,67.842 116.598,68.012 C112.678,68.942 108.719,69.501 104.612,69.456 C97.944,69.382 103.999,68.974 100.526,68.981 C99.895,68.982 99.2,68.876 98.646,69.057 C97.49,69.436 52.8119999999999,69.331 51.6410000000001,69.354 C50.3,69.38 48.9580000000001,69.36 47.7719999999999,69.36 C46.152,69.863 42.2829999999999,72.36 41.05,73.235 C40.817,73.401 40.502,73.486 40.2260000000001,73.609 C37.596,74.779 35.1289999999999,76.163 32.6890000000001,77.582 C31.855,78.067 31.0360000000001,78.572 30.2429999999999,79.102 C29.625,79.516 28.828,79.567 28.175,79.986 C26.5119999999999,81.054 24.7180000000001,81.982 22.9200000000001,82.998 C22.0550000000001,82.948 21.6010000000001,82.424 21.127,81.796 C21.175,81.467 21.1510000000001,81.059 21.3019999999999,80.703 C21.797,79.537 22.2370000000001,78.358 22.846,77.221 C23.4459999999999,76.101 23.5630000000001,74.836 24.2570000000001,73.717 C24.817,72.814 28.1010000000001,68.409 28.5719999999999,67.412 C27.5319999999999,67.185 26.527,67.033 25.5840000000001,66.741 C24.6300000000001,66.445 23.7159999999999,66.043 22.8240000000001,65.629 C21.1700000000001,64.861 12.0519999999999,61.868 9.29199999999992,59.949 C8.95100000000002,59.712 5.80199999999991,54.592 4.64200000000005,52.296 C3.89300000000003,50.813 1.46100000000001,42.316 1.89100000000008,39.531 C1.96499999999992,39.055 1.08699999999999,35.88 1.06400000000008,34.763 C1.02800000000002,33.007 1.06500000000005,31.25 1.00299999999993,29.496 Z "/>
<path stroke="rgb( 161, 174, 179 )" stroke-width="1px" stroke-dasharray="4, 2" stroke-linecap="butt" stroke-linejoin="miter" fill="none"
 d="M3.49800000000005,30.401 C3.38699999999994,27.406 4.20900000000006,24.533 5.02199999999993,21.627 C5.61799999999994,19.496 6.68299999999999,17.505 7.34799999999996,15.491 C8.59899999999993,14.276 12.3979999999999,10.229 15.4200000000001,9.154 C17.6110000000001,8.44400000000002 23.8230000000001,6.28300000000002 27.203,5.78899999999999 C30.492,5.30900000000003 33.7090000000001,4.661 37.0889999999999,4.743 C38.846,4.786 44.9400000000001,4.68700000000001 46.249,4.35899999999998 C47.452,4.05799999999999 52.518,4.774 53.9380000000001,4.493 C55.114,4.26100000000002 66.2719999999999,4.779 70.5229999999999,4.803 C71.4010000000001,4.80799999999999 80.019,5.411 83.473,5.45800000000003 C84.644,5.47399999999999 92.7339999999999,6.10700000000003 95.6400000000001,6.14600000000002 C96.8019999999999,6.161 102.322,6.63 103.816,6.98899999999998 C105.532,7.40100000000001 111.442,8.80599999999998 112.884,9 C114.821,9.26100000000002 120.813,12.492 122.278,13.021 C123.806,13.573 126.336,16.386 126.725,16.712 C129.187,18.773 132.016,25.02 132.073,25.577 C132.367,28.396 131.354,40.622 131.342,41.196 C131.307,42.805 131.155,47.402 130.94,48.055 C130.217,50.253 129.924,52.541 128.714,54.636 C128.485,57.644 125.702,59.519 123.452,61.541 C121.764,63.058 115.993,65.551 115.299,65.707 C111.508,66.558 107.678,67.072 103.706,67.03 C97.2570000000001,66.962 104.554,66.698 101.194,66.704 C100.584,66.705 99.9110000000001,66.607 99.376,66.773 C98.258,67.121 53.6189999999999,67.025 52.4860000000001,67.046 C51.1890000000001,67.07 49.8910000000001,67.051 48.7429999999999,67.051 C47.1769999999999,67.512 46.2919999999999,66.56 45.0989999999999,67.362 C44.874,67.514 44.569,67.592 44.3019999999999,67.705 C41.759,68.777 36.4490000000001,73.463 34.0899999999999,74.763 C33.2829999999999,75.208 32.49,75.67 31.7239999999999,76.157 C31.126,76.536 30.355,76.583 29.7239999999999,76.967 C28.115,77.946 26.3810000000001,78.796 24.6410000000001,79.728 C23.8050000000001,79.682 23.365,79.202 22.9069999999999,78.626 C22.954,78.324 22.9300000000001,77.95 23.076,77.624 C23.5550000000001,76.555 23.98,75.474 24.569,74.432 C25.1500000000001,73.405 28.1859999999999,68.83 28.8579999999999,67.804 C29.3989999999999,66.976 29.748,66.071 30.204,65.156 C29.1980000000001,64.948 28.2249999999999,64.809 27.3140000000001,64.541 C26.3910000000001,64.27 25.5070000000001,63.902 24.645,63.522 C23.0450000000001,62.818 14.1849999999999,60.075 11.5150000000001,58.315 C11.1859999999999,58.099 8.1400000000001,53.405 7.01800000000003,51.301 C6.2940000000001,49.941 3.94200000000001,42.153 4.35799999999995,39.6 C4.42900000000009,39.163 3.57999999999993,36.253 3.55799999999999,35.229 C3.52199999999993,33.62 3.55799999999999,32.01 3.49800000000005,30.401 Z "/>
</svg>

<svg baseProfile="full" xmlns="http://www.w3.org/2000/svg" height="83" width="135"><path fill="rgb( 255, 255, 255 )" d="M1.003 29.496c-.116-3.268.734-6.403 1.575-9.572.617-2.325 1.718-4.498 2.405-6.695 1.293-1.325 5.222-5.74 8.347-6.913 2.264-.774 8.688-3.133 12.182-3.671 3.401-.524 6.727-1.231 10.222-1.141 1.816.046 8.117-.062 9.47-.419 1.244-.328 6.482.453 7.951.146 1.216-.254 12.752.312 17.148.338.908.005 9.818.663 13.389.715 1.21.017 9.576.708 12.58.75 1.202.017 6.909.529 8.453.92 1.775.45 7.885 1.982 9.376 2.194 2.003.284 8.198 3.809 9.713 4.387 1.58.602 4.196 3.671 4.598 4.026 2.546 2.249 5.47 9.064 5.53 9.671.303 3.076-.744 16.414-.757 17.04-.035 1.756-.192 6.77-.415 7.484-.747 2.397-1.05 4.893-2.301 7.179-.237 3.282-3.114 5.327-5.441 7.533-1.745 1.655-7.712 4.374-8.43 4.544-3.92.93-7.879 1.489-11.986 1.444-6.668-.074-.613-.482-4.086-.475-.631.001-1.326-.105-1.88.076-1.156.379-45.834.274-47.005.297-1.341.026-2.683.006-3.869.006-1.62.503-5.489 3-6.722 3.875-.233.166-.548.251-.824.374-2.63 1.17-5.097 2.554-7.537 3.973-.834.485-1.653.99-2.446 1.52-.618.414-1.415.465-2.068.884-1.663 1.068-3.457 1.996-5.255 3.012-.865-.05-1.319-.574-1.793-1.202.048-.329.024-.737.175-1.093.495-1.166.935-2.345 1.544-3.482.6-1.12.717-2.385 1.411-3.504.56-.903 3.844-5.308 4.315-6.305-1.04-.227-2.045-.379-2.988-.671-.954-.296-1.868-.698-2.76-1.112-1.654-.768-10.772-3.761-13.532-5.68-.341-.237-3.49-5.357-4.65-7.653-.749-1.483-3.181-9.98-2.751-12.765.074-.476-.804-3.651-.827-4.768-.036-1.756.001-3.513-.061-5.267z"/><path stroke="rgb( 161, 174, 179 )" stroke-dasharray="4, 2" d="M3.498 30.401c-.111-2.995.711-5.868 1.524-8.774.596-2.131 1.661-4.122 2.326-6.136 1.251-1.215 5.05-5.262 8.072-6.337 2.191-.71 8.403-2.871 11.783-3.365 3.289-.48 6.506-1.128 9.886-1.046 1.757.043 7.851-.056 9.16-.384 1.203-.301 6.269.415 7.689.134 1.176-.232 12.334.286 16.585.31.878.005 9.496.608 12.95.655 1.171.016 9.261.649 12.167.688 1.162.015 6.682.484 8.176.843 1.716.412 7.626 1.817 9.068 2.011 1.937.261 7.929 3.492 9.394 4.021 1.528.552 4.058 3.365 4.447 3.691 2.462 2.061 5.291 8.308 5.348 8.865.294 2.819-.719 15.045-.731 15.619-.035 1.609-.187 6.206-.402 6.859-.723 2.198-1.016 4.486-2.226 6.581-.229 3.008-3.012 4.883-5.262 6.905-1.688 1.517-7.459 4.01-8.153 4.166-3.791.851-7.621 1.365-11.593 1.323-6.449-.068.848-.332-2.512-.326-.61.001-1.283-.097-1.818.069-1.118.348-45.757.252-46.89.273-1.297.024-2.595.005-3.743.005-1.566.461-2.451-.491-3.644.311-.225.152-.53.23-.797.343-2.543 1.072-7.853 5.758-10.212 7.058-.807.445-1.6.907-2.366 1.394-.598.379-1.369.426-2 .81-1.609.979-3.343 1.829-5.083 2.761-.836-.046-1.276-.526-1.734-1.102.047-.302.023-.676.169-1.002.479-1.069.904-2.15 1.493-3.192.581-1.027 3.617-5.602 4.289-6.628.541-.828.89-1.733 1.346-2.648-1.006-.208-1.979-.347-2.89-.615-.923-.271-1.807-.639-2.669-1.019-1.6-.704-10.46-3.447-13.13-5.207-.329-.216-3.375-4.91-4.497-7.014-.724-1.36-3.076-9.148-2.66-11.701.071-.437-.778-3.347-.8-4.371-.036-1.609 0-3.219-.06-4.828z" fill="none"/></svg>
